austria/municipalities/40620.svg

<?xml version="1.0" encoding="UTF-8"?>
<!DOCTYPE svg PUBLIC "-//W3C//DTD SVG 1.1//EN" "http://www.w3.org/Graphics/SVG/1.1/DTD/svg11.dtd">
<svg xmlns="http://www.w3.org/2000/svg" version="1.1" width="166px" height="207px" style="shape-rendering:geometricPrecision; text-rendering:geometricPrecision; image-rendering:optimizeQuality; fill-rule:evenodd; clip-rule:evenodd" xmlns:xlink="http://www.w3.org/1999/xlink">
<g><path style="opacity:1" fill="#000000" d="M -0.5,-0.5 C 54.8333,-0.5 110.167,-0.5 165.5,-0.5C 165.5,44.5 165.5,89.5 165.5,134.5C 161.239,157.511 149.906,176.344 131.5,191C 120.516,198.576 108.516,203.743 95.5,206.5C 86.8333,206.5 78.1667,206.5 69.5,206.5C 30.0336,197.035 6.70027,172.368 -0.5,132.5C -0.5,88.1667 -0.5,43.8333 -0.5,-0.5 Z"/></g>
<g><path style="opacity:1" fill="#fe9800" d="M 31.5,11.5 C 37.8752,11.519 42.8752,14.1857 46.5,19.5C 49.2312,23.7957 51.5645,28.2957 53.5,33C 73.1751,33.833 92.8418,33.6664 112.5,32.5C 115.192,23.9385 120.192,17.1051 127.5,12C 137.476,10.6458 140.976,14.8125 138,24.5C 133.891,28.334 129.391,29.1673 124.5,27C 125.357,27.6891 126.023,28.5224 126.5,29.5C 123.113,37.4793 121.113,45.8126 120.5,54.5C 117.243,53.4486 113.91,52.7819 110.5,52.5C 109.167,49.5 109.167,46.5 110.5,43.5C 92.1667,43.5 73.8333,43.5 55.5,43.5C 55.5,46.5 55.5,49.5 55.5,52.5C 52.0903,52.7819 48.757,53.4486 45.5,54.5C 43.9382,44.8615 42.1048,35.5282 40,26.5C 30.2758,30.4563 25.9425,27.1229 27,16.5C 28.025,14.313 29.525,12.6464 31.5,11.5 Z"/></g>
<g><path style="opacity:1" fill="#fe9900" d="M 71.5,51.5 C 81.5407,51.2443 91.5407,51.7443 101.5,53C 103.321,55.456 103.988,58.2893 103.5,61.5C 89.4957,60.2463 75.4957,60.2463 61.5,61.5C 61.5,58.8333 61.5,56.1667 61.5,53.5C 65.0109,53.1006 68.3443,52.4339 71.5,51.5 Z"/></g>
<g><path style="opacity:1" fill="#fe9900" d="M 56.5,53.5 C 57.8326,66.6497 58.4993,80.1497 58.5,94C 58.1667,107.5 57.8333,121 57.5,134.5C 54.9044,133.518 52.2377,132.851 49.5,132.5C 49.5,106.833 49.5,81.1667 49.5,55.5C 52.0673,55.2785 54.4006,54.6118 56.5,53.5 Z"/></g>
<g><path style="opacity:1" fill="#fe9900" d="M 106.5,53.5 C 109.189,54.0382 111.856,54.7049 114.5,55.5C 115.833,81.1667 115.833,106.833 114.5,132.5C 112.167,133.167 109.833,133.833 107.5,134.5C 106.5,107.508 106.167,80.5082 106.5,53.5 Z"/></g>
<g><path style="opacity:1" fill="#fe9900" d="M 45.5,55.5 C 47.369,57.6353 48.0356,60.3019 47.5,63.5C 44.4824,63.7038 41.4824,64.0371 38.5,64.5C 38.5,62.1667 38.5,59.8333 38.5,57.5C 41.0673,57.2785 43.4006,56.6118 45.5,55.5 Z"/></g>
<g><path style="opacity:1" fill="#fe9900" d="M 117.5,55.5 C 119.865,56.0084 122.199,56.6751 124.5,57.5C 125.474,59.7427 125.808,62.076 125.5,64.5C 122.873,63.9084 120.206,63.5751 117.5,63.5C 117.5,60.8333 117.5,58.1667 117.5,55.5 Z"/></g>
<g><path style="opacity:1" fill="#fe9900" d="M 35.5,58.5 C 36.6631,81.9964 36.8298,105.663 36,129.5C 33.3333,128.167 30.6667,126.833 28,125.5C 27.1669,104.159 27.3336,82.8255 28.5,61.5C 30.8852,60.3385 33.2186,59.3385 35.5,58.5 Z"/></g>
<g><path style="opacity:1" fill="#fe9900" d="M 128.5,58.5 C 131.138,59.4916 133.805,60.4916 136.5,61.5C 137.666,82.8255 137.833,104.159 137,125.5C 134.333,126.833 131.667,128.167 129,129.5C 128.5,105.836 128.333,82.169 128.5,58.5 Z"/></g>
<g><path style="opacity:1" fill="#fe9900" d="M 71.5,61.5 C 82.2137,61.5044 92.8804,62.1711 103.5,63.5C 103.5,66.8333 103.5,70.1667 103.5,73.5C 92.8281,73.3335 82.1615,73.5002 71.5,74C 68.443,74.2565 65.443,74.7565 62.5,75.5C 61.5091,71.5546 61.1758,67.5546 61.5,63.5C 65.0399,63.2474 68.3733,62.5808 71.5,61.5 Z"/></g>
<g><path style="opacity:1" fill="#fe9900" d="M 41.5,65.5 C 43.5,65.5 45.5,65.5 47.5,65.5C 47.5,69.1667 47.5,72.8333 47.5,76.5C 44.4552,76.5079 41.4552,76.8413 38.5,77.5C 38.5,73.8333 38.5,70.1667 38.5,66.5C 39.791,66.7373 40.791,66.404 41.5,65.5 Z"/></g>
<g><path style="opacity:1" fill="#fe9900" d="M 117.5,65.5 C 123.18,64.1569 125.847,66.3236 125.5,72C 125.167,73.8333 124.833,75.6667 124.5,77.5C 122.253,76.6258 119.92,76.2924 117.5,76.5C 117.5,72.8333 117.5,69.1667 117.5,65.5 Z"/></g>
<g><path style="opacity:1" fill="#fe9900" d="M 71.5,75.5 C 82.1667,75.5 92.8333,75.5 103.5,75.5C 103.5,88.1667 103.5,100.833 103.5,113.5C 89.5,113.5 75.5,113.5 61.5,113.5C 61.5,101.167 61.5,88.8333 61.5,76.5C 65.0419,76.8128 68.3752,76.4794 71.5,75.5 Z"/></g>
<g><path style="opacity:1" fill="#fe9900" d="M 40.5,78.5 C 42.8333,78.5 45.1667,78.5 47.5,78.5C 47.5,89.5 47.5,100.5 47.5,111.5C 44.5,111.5 41.5,111.5 38.5,111.5C 37.8912,100.245 38.5579,89.2451 40.5,78.5 Z"/></g>
<g><path style="opacity:1" fill="#fe9900" d="M 117.5,78.5 C 120.119,78.2317 122.619,78.565 125,79.5C 125.5,90.1615 125.667,100.828 125.5,111.5C 122.833,111.5 120.167,111.5 117.5,111.5C 117.5,100.5 117.5,89.5 117.5,78.5 Z"/></g>
<g><path style="opacity:1" fill="#000000" d="M 81.5,85.5 C 89.7066,87.2466 92.04,91.9132 88.5,99.5C 81.1633,104.366 76.1633,102.532 73.5,94C 74.6839,89.6524 77.3506,86.819 81.5,85.5 Z"/></g>
<g><path style="opacity:1" fill="#fe9900" d="M 38.5,112.5 C 41.4299,113.299 44.4299,113.632 47.5,113.5C 47.5,116.833 47.5,120.167 47.5,123.5C 44.7508,123.726 42.0841,123.393 39.5,122.5C 38.513,119.232 38.1796,115.898 38.5,112.5 Z"/></g>
<g><path style="opacity:1" fill="#fe9900" d="M 123.5,112.5 C 124.777,113.694 125.444,115.36 125.5,117.5C 125.333,119.167 125.167,120.833 125,122.5C 122.619,123.435 120.119,123.768 117.5,123.5C 117.5,120.167 117.5,116.833 117.5,113.5C 119.735,113.795 121.735,113.461 123.5,112.5 Z"/></g>
<g><path style="opacity:1" fill="#fe9900" d="M 97.5,114.5 C 99.5,114.5 101.5,114.5 103.5,114.5C 103.5,118.5 103.5,122.5 103.5,126.5C 89.4971,127.812 75.4971,127.812 61.5,126.5C 61.5,122.833 61.5,119.167 61.5,115.5C 73.6783,115.828 85.6783,115.495 97.5,114.5 Z"/></g>
<g><path style="opacity:1" fill="#fe9900" d="M 38.5,124.5 C 41.4824,124.963 44.4824,125.296 47.5,125.5C 47.5,127.5 47.5,129.5 47.5,131.5C 44.4824,131.296 41.4824,130.963 38.5,130.5C 38.5,128.5 38.5,126.5 38.5,124.5 Z"/></g>
<g><path style="opacity:1" fill="#fe9900" d="M 123.5,124.5 C 125.308,125.918 125.975,127.918 125.5,130.5C 122.833,130.833 120.167,131.167 117.5,131.5C 117.5,129.5 117.5,127.5 117.5,125.5C 119.735,125.795 121.735,125.461 123.5,124.5 Z"/></g>
<g><path style="opacity:1" fill="#fe9900" d="M 100.5,127.5 C 101.5,127.5 102.5,127.5 103.5,127.5C 103.5,129.833 103.5,132.167 103.5,134.5C 89.5,135.833 75.5,135.833 61.5,134.5C 61.5,132.5 61.5,130.5 61.5,128.5C 68.3284,128.849 75.1617,129.182 82,129.5C 88.3925,129.577 94.5591,128.911 100.5,127.5 Z"/></g>
<g><path style="opacity:1" fill="#fefffe" d="M -0.5,132.5 C 6.70027,172.368 30.0336,197.035 69.5,206.5C 46.1667,206.5 22.8333,206.5 -0.5,206.5C -0.5,181.833 -0.5,157.167 -0.5,132.5 Z"/></g>
<g><path style="opacity:1" fill="#fe9900" d="M 38.5,160.5 C 42.2227,151.897 44.556,142.897 45.5,133.5C 48.7906,134.382 52.124,135.048 55.5,135.5C 55.5,137.833 55.5,140.167 55.5,142.5C 73.8333,142.5 92.1667,142.5 110.5,142.5C 110.714,140.856 110.38,139.356 109.5,138C 112.744,134.832 116.744,133.332 121.5,133.5C 121.448,142.523 123.114,151.189 126.5,159.5C 126.392,160.442 126.059,161.275 125.5,162C 135.723,158.88 140.223,162.713 139,173.5C 134.775,178.29 129.941,178.79 124.5,175C 118.146,168.783 114.146,161.283 112.5,152.5C 92.8305,152.333 73.1638,152.5 53.5,153C 51.0958,161.817 46.4291,169.15 39.5,175C 34.9147,178.472 30.748,177.972 27,173.5C 24.3105,163.584 28.1438,159.25 38.5,160.5 Z"/></g>
<g><path style="opacity:1" fill="#fefffe" d="M 165.5,134.5 C 165.5,158.5 165.5,182.5 165.5,206.5C 142.167,206.5 118.833,206.5 95.5,206.5C 108.516,203.743 120.516,198.576 131.5,191C 149.906,176.344 161.239,157.511 165.5,134.5 Z"/></g>
<g><path style="opacity:1" fill="#000000" d="M 38.5,160.5 C 39.2891,160.783 39.9558,161.283 40.5,162C 39.184,162.528 38.5173,162.028 38.5,160.5 Z"/></g>
</svg>

<svg xmlns="http://www.w3.org/2000/svg" width="166" height="207" style="shape-rendering:geometricPrecision;text-rendering:geometricPrecision;image-rendering:optimizeQuality;fill-rule:evenodd;clip-rule:evenodd"><path style="opacity:1" d="M-.5-.5h166v135c-4.261 23.011-15.594 41.844-34 56.5-10.984 7.576-22.984 12.743-36 15.5h-26c-39.466-9.465-62.8-34.132-70-74V-.5z"/><path style="opacity:1" fill="#fe9800" d="M31.5 11.5c6.375.019 11.375 2.686 15 8a86.345 86.345 0 0 1 7 13.5c19.675.833 39.342.666 59-.5 2.692-8.561 7.692-15.395 15-20.5 9.976-1.354 13.476 2.813 10.5 12.5-4.109 3.834-8.609 4.667-13.5 2.5a7.253 7.253 0 0 1 2 2.5 77.505 77.505 0 0 0-6 25 44.333 44.333 0 0 0-10-2c-1.333-3-1.333-6 0-9h-55v9c-3.41.282-6.743.949-10 2a417.326 417.326 0 0 0-5.5-28c-9.724 3.956-14.058.623-13-10 1.025-2.187 2.525-3.854 4.5-5z"/><path style="opacity:1" fill="#fe9900" d="M71.5 51.5c10.04-.256 20.04.244 30 1.5 1.821 2.456 2.488 5.29 2 8.5a234.976 234.976 0 0 0-42 0v-8c3.51-.4 6.844-1.066 10-2zM56.5 53.5c1.333 13.15 2 26.65 2 40.5l-1 40.5a35.175 35.175 0 0 0-8-2v-77c2.567-.221 4.9-.888 7-2zM106.5 53.5a87.18 87.18 0 0 1 8 2 741.81 741.81 0 0 1 0 77l-7 2c-1-26.992-1.333-53.992-1-81zM45.5 55.5c1.869 2.135 2.536 4.802 2 8-3.018.204-6.018.537-9 1v-7c2.567-.221 4.9-.888 7-2zM117.5 55.5a54.942 54.942 0 0 1 7 2 13.115 13.115 0 0 1 1 7 41.58 41.58 0 0 0-8-1v-8zM35.5 58.5a842.573 842.573 0 0 1 .5 71l-8-4a683.233 683.233 0 0 1 .5-64 75.534 75.534 0 0 1 7-3zM128.5 58.5c2.638.992 5.305 1.992 8 3a683.404 683.404 0 0 1 .5 64l-8 4a2519.42 2519.42 0 0 1-.5-71zM71.5 61.5c10.714.004 21.38.671 32 2v10a512.47 512.47 0 0 0-32 .5 55.692 55.692 0 0 0-9 1.5 36.874 36.874 0 0 1-1-12c3.54-.253 6.873-.92 10-2zM41.5 65.5h6v11a41.744 41.744 0 0 0-9 1v-11c1.291.237 2.291-.096 3-1zM117.5 65.5c5.68-1.343 8.347.824 8 6.5l-1 5.5a15.42 15.42 0 0 0-7-1v-11zM71.5 75.5h32v38h-42v-37c3.542.313 6.875-.02 10-1zM40.5 78.5h7v33h-9c-.609-11.255.058-22.255 2-33zM117.5 78.5c2.619-.268 5.119.065 7.5 1 .5 10.662.667 21.328.5 32h-8v-33z"/><path style="opacity:1" d="M81.5 85.5c8.207 1.747 10.54 6.413 7 14-7.337 4.866-12.337 3.032-15-5.5 1.184-4.348 3.85-7.181 8-8.5z"/><path style="opacity:1" fill="#fe9900" d="M38.5 112.5a29.23 29.23 0 0 0 9 1v10a19.372 19.372 0 0 1-8-1 25.87 25.87 0 0 1-1-10zM123.5 112.5c1.277 1.194 1.944 2.86 2 5l-.5 5c-2.381.935-4.881 1.268-7.5 1v-10c2.235.295 4.235-.039 6-1zM97.5 114.5h6v12a224.577 224.577 0 0 1-42 0v-11c12.178.328 24.178-.005 36-1zM38.5 124.5c2.982.463 5.982.796 9 1v6a104.653 104.653 0 0 1-9-1v-6zM123.5 124.5c1.808 1.418 2.475 3.418 2 6l-8 1v-6c2.235.295 4.235-.039 6-1zM100.5 127.5h3v7c-14 1.333-28 1.333-42 0v-6c6.828.349 13.662.682 20.5 1 6.392.077 12.56-.589 18.5-2z"/><path style="opacity:1" fill="#fefffe" d="M-.5 132.5c7.2 39.868 30.534 64.535 70 74h-70v-74z"/><path style="opacity:1" fill="#fe9900" d="M38.5 160.5c3.723-8.603 6.056-17.603 7-27a79.158 79.158 0 0 0 10 2v7h55c.214-1.644-.12-3.144-1-4.5 3.244-3.168 7.244-4.668 12-4.5-.052 9.023 1.614 17.689 5 26a4.933 4.933 0 0 1-1 2.5c10.223-3.12 14.723.713 13.5 11.5-4.225 4.79-9.059 5.29-14.5 1.5-6.354-6.217-10.354-13.717-12-22.5-19.67-.167-39.336 0-59 .5-2.404 8.817-7.07 16.15-14 22-4.585 3.472-8.752 2.972-12.5-1.5-2.69-9.916 1.144-14.25 11.5-13z"/><path style="opacity:1" fill="#fefffe" d="M165.5 134.5v72h-70c13.016-2.757 25.016-7.924 36-15.5 18.406-14.656 29.739-33.489 34-56.5z"/><path style="opacity:1" d="M38.5 160.5c.79.283 1.456.783 2 1.5-1.316.528-1.983.028-2-1.5z"/></svg>
